icons/1_Primary/PIEE.svg

<svg xmlns="http://www.w3.org/2000/svg" width="1024" height="1024" fill="none">
   <g clip-path="url(#a)">
      <path fill="#9ABEFF" d="M512 1024c282.77 0 512-229.23 512-512S794.77 0 512 0 0 229.23 0 512s229.23 512 512 512Z"/>
      <path fill="#fff" d="M256.2 420.8h68.6c12.2.2 24.6.2 36.2 4.3 8.9 3 17.3 8.7 21.9 17 5.2 9.1 5.7 20 4.4 30.2-2 17.6-12.6 34-27.8 43.1-6.8 4.1-14.3 6.8-22 8.7-9.2 2.2-18.6 3.2-28.1 3.5-7.1 0-14.2.2-21.2-.6-2.4 10.9-4.8 21.7-7.2 32.6-1.5 6.9-3.5 13.9-3.4 21-.2 3.6-.1 7.7 2.5 10.5 2.8 2.6 6.8 3.1 10.4 3.5-.6 2.9-1.2 5.9-1.9 8.8h-69.2c.6-3 1.2-5.9 1.9-8.9 3.3-1 6.6-2.4 9.1-4.9 2.4-2.5 4-5.6 5.2-8.8 2.3-6.2 3.5-12.7 5-19.1L263.7 457c1.1-5.1 1.7-10.3 1.7-15.5-.1-2.9-.5-6-2.6-8.1-2.3-2.2-5.5-3-8.5-3.4.7-3.3 1.3-6.2 1.9-9.2Zm51.9 16c-5.5 25.1-11 50.1-16.4 75.2 9.8 0 19.9.1 29.3-3.2 6.9-2.4 13-7.1 17.1-13.2 6.7-9.7 9.1-21.7 8.9-33.3-.1-5.5-1-11.2-4-15.9-2.7-4.5-7.4-7.5-12.5-8.7-7.3-1.9-14.9-1-22.4-.9Zm112.2-7.1c2.8.4 5.8 1.1 8.1 3 2.3 2 2.9 5.2 3 8.1 0 5.6-.6 11.2-1.9 16.6-8.3 37.5-16.5 75-24.8 112.5-1.7 6.6-3.2 13.7-7.8 19.1-2.5 2.9-6.1 4.3-9.6 5.4-.6 2.9-1.3 5.9-1.9 8.9h67.3c.6-2.9 1.3-5.9 1.9-8.8-2.8-.5-5.8-1.1-8-3-2.2-1.8-2.9-4.7-3-7.4-.2-5.6.4-11.3 1.7-16.7 8.3-37.5 16.5-75 24.8-112.5 1.7-6.8 3.2-14 7.8-19.5 2.5-2.9 6.1-4.5 9.7-5.6.6-3 1.3-6 1.9-9h-67.3c-.7 3-1.4 5.9-1.9 8.9Zm96.1 0c2.9.5 5.9 1.2 8.2 3.1 1.9 1.7 2.7 4.3 2.8 6.7.3 6.1-.5 12.2-1.8 18.1-8.3 37.5-16.5 75.1-24.9 112.6-1.7 6.4-3.2 13.3-7.6 18.5-2.5 2.9-6 4.5-9.6 5.5-.7 2.9-1.3 5.9-1.9 8.9 42.4 0 84.8.1 127.2 0 4-16.1 8.2-32.1 12.2-48.1h-18.3c-4.9 10.3-10.2 21-19.4 28.2-2.9 2.3-6.6 3.6-10.2 4-4.6.5-9.3.3-14 .3h-22.3c5.3-23.7 10.5-47.5 15.8-71.3h20.1c2.3.1 4.6.3 6.7 1.4 2 1.1 3.2 3.1 3.9 5.3 1.2 4.2 1.1 8.7 1.3 13h13.8c4.3-18.1 8.6-36.2 12.8-54.3h-14.8c-2.4 5.4-5 10.9-9.5 14.8-3.3 2.9-7.8 4-12.1 4h-18.9c4.7-21.3 9.4-42.7 14.2-64h34.1c3.8.1 8 .7 11 3.4 2.7 2.5 4.1 6.1 4.7 9.6.9 4.7 1.3 9.6 1.5 14.4h17.3c3.1-14.4 6.4-28.7 9.5-43.1H518.4c-.8 3-1.4 6-2 9Zm156.4 0c3.2.6 6.8 1.4 9 4 2.4 3.1 2.2 7.3 2 11-.3 8.2-2.6 16.1-4.3 24.1-7.6 34.1-15 68.2-22.6 102.3-1.6 6.2-3.2 12.8-7.5 17.8-2.5 2.8-6 4.4-9.6 5.4-.7 2.9-1.3 5.9-1.9 8.9h127.2c4-16.1 8.2-32.1 12.3-48.1h-18.3c-4.6 9.8-9.7 19.8-18 27-3.2 2.9-7.2 4.7-11.5 5.1-4.7.5-9.5.3-14.2.4h-22.2c5.3-23.7 10.5-47.5 15.7-71.2h20c2.4.1 4.9.3 7 1.5 2.2 1.3 3.4 3.8 4 6.2.9 3.9 1 8 .9 12h13.9c4.3-18.1 8.6-36.2 12.8-54.3h-14.7c-2.5 5.5-5.2 11.2-9.9 15.1-3.1 2.7-7.3 3.7-11.4 3.7h-19.2c4.7-21.4 9.4-42.7 14.1-64.1h34c3.5.1 7.1.6 10 2.6 3 2.1 4.7 5.7 5.5 9.2 1.1 5.1 1.5 10.4 1.8 15.6h17.2c3.2-14.4 6.4-28.7 9.5-43.1H674.6c-.6 2.9-1.2 5.9-1.8 8.9Z"/>
   </g>
   <defs>
      <clipPath id="a">
         <path fill="#fff" d="M0 0h1024v1024H0z"/>
      </clipPath>
   </defs>
</svg>

<svg width="1024" height="1024" viewBox="0 0 1024 1024" fill="none" xmlns="http://www.w3.org/2000/svg">
<g clip-path="url(#clip0_2_3132)">
<path d="M512 1024C794.77 1024 1024 794.77 1024 512C1024 229.23 794.77 0 512 0C229.23 0 0 229.23 0 512C0 794.77 229.23 1024 512 1024Z" fill="#9ABEFF"/>
<path d="M256.2 420.8H324.8C337 421 349.4 421 361 425.1C369.9 428.1 378.3 433.8 382.9 442.1C388.1 451.2 388.6 462.1 387.3 472.3C385.3 489.9 374.7 506.3 359.5 515.4C352.7 519.5 345.2 522.2 337.5 524.1C328.3 526.3 318.9 527.3 309.4 527.6C302.3 527.6 295.2 527.8 288.2 527C285.8 537.9 283.4 548.7 281 559.6C279.5 566.5 277.5 573.5 277.6 580.6C277.4 584.2 277.5 588.3 280.1 591.1C282.9 593.7 286.9 594.2 290.5 594.6C289.9 597.5 289.3 600.5 288.6 603.4H219.4C220 600.4 220.6 597.5 221.3 594.5C224.6 593.5 227.9 592.1 230.4 589.6C232.8 587.1 234.4 584 235.6 580.8C237.9 574.6 239.1 568.1 240.6 561.7L263.7 457C264.8 451.9 265.4 446.7 265.4 441.5C265.3 438.6 264.9 435.5 262.8 433.4C260.5 431.2 257.3 430.4 254.3 430C255 426.7 255.6 423.8 256.2 420.8ZM308.1 436.8C302.6 461.9 297.1 486.9 291.7 512C301.5 512 311.6 512.1 321 508.8C327.9 506.4 334 501.7 338.1 495.6C344.8 485.9 347.2 473.9 347 462.3C346.9 456.8 346 451.1 343 446.4C340.3 441.9 335.6 438.9 330.5 437.7C323.2 435.8 315.6 436.7 308.1 436.8ZM420.3 429.7C423.1 430.1 426.1 430.8 428.4 432.7C430.7 434.7 431.3 437.9 431.4 440.8C431.4 446.4 430.8 452 429.5 457.4C421.2 494.9 413 532.4 404.7 569.9C403 576.5 401.5 583.6 396.9 589C394.4 591.9 390.8 593.3 387.3 594.4C386.7 597.3 386 600.3 385.4 603.3H452.7C453.3 600.4 454 597.4 454.6 594.5C451.8 594 448.8 593.4 446.6 591.5C444.4 589.7 443.7 586.8 443.6 584.1C443.4 578.5 444 572.8 445.3 567.4C453.6 529.9 461.8 492.4 470.1 454.9C471.8 448.1 473.3 440.9 477.9 435.4C480.4 432.5 484 430.9 487.6 429.8C488.2 426.8 488.9 423.8 489.5 420.8H422.2C421.5 423.8 420.8 426.7 420.3 429.7ZM516.4 429.7C519.3 430.2 522.3 430.9 524.6 432.8C526.5 434.5 527.3 437.1 527.4 439.5C527.7 445.6 526.9 451.7 525.6 457.6C517.3 495.1 509.1 532.7 500.7 570.2C499 576.6 497.5 583.5 493.1 588.7C490.6 591.6 487.1 593.2 483.5 594.2C482.8 597.1 482.2 600.1 481.6 603.1C524 603.1 566.4 603.2 608.8 603.1C612.8 587 617 571 621 555H602.7C597.8 565.3 592.5 576 583.3 583.2C580.4 585.5 576.7 586.8 573.1 587.2C568.5 587.7 563.8 587.5 559.1 587.5H536.8C542.1 563.8 547.3 540 552.6 516.2H572.7C575 516.3 577.3 516.5 579.4 517.6C581.4 518.7 582.6 520.7 583.3 522.9C584.5 527.1 584.4 531.6 584.6 535.9H598.4C602.7 517.8 607 499.7 611.2 481.6H596.4C594 487 591.4 492.5 586.9 496.4C583.6 499.3 579.1 500.4 574.8 500.4H555.9C560.6 479.1 565.3 457.7 570.1 436.4H604.2C608 436.5 612.2 437.1 615.2 439.8C617.9 442.3 619.3 445.9 619.9 449.4C620.8 454.1 621.2 459 621.4 463.8H638.7C641.8 449.4 645.1 435.1 648.2 420.7H518.4C517.6 423.7 517 426.7 516.4 429.7ZM672.8 429.7C676 430.3 679.6 431.1 681.8 433.7C684.2 436.8 684 441 683.8 444.7C683.5 452.9 681.2 460.8 679.5 468.8C671.9 502.9 664.5 537 656.9 571.1C655.3 577.3 653.7 583.9 649.4 588.9C646.9 591.7 643.4 593.3 639.8 594.3C639.1 597.2 638.5 600.2 637.9 603.2H765.1C769.1 587.1 773.3 571.1 777.4 555.1H759.1C754.5 564.9 749.4 574.9 741.1 582.1C737.9 585 733.9 586.8 729.6 587.2C724.9 587.7 720.1 587.5 715.4 587.6H693.2C698.5 563.9 703.7 540.1 708.9 516.4H728.9C731.3 516.5 733.8 516.7 735.9 517.9C738.1 519.2 739.3 521.7 739.9 524.1C740.8 528 740.9 532.1 740.8 536.1H754.7C759 518 763.3 499.9 767.5 481.8H752.8C750.3 487.3 747.6 493 742.9 496.9C739.8 499.6 735.6 500.6 731.5 500.6H712.3C717 479.2 721.7 457.9 726.4 436.5H760.4C763.9 436.6 767.5 437.1 770.4 439.1C773.4 441.2 775.1 444.8 775.9 448.3C777 453.4 777.4 458.7 777.7 463.9H794.9C798.1 449.5 801.3 435.2 804.4 420.8H674.6C674 423.7 673.4 426.7 672.8 429.7Z" fill="white"/>
</g>
<defs>
<clipPath id="clip0_2_3132">
<rect width="1024" height="1024" fill="white"/>
</clipPath>
</defs>
</svg>
